launcher/android/assets/skins/day/svg/cache_pressed.svg

<svg enable-background="new 0 0 88.00 76.00" height="76" viewBox="0 0 88 76" width="88" xmlns="http://www.w3.org/2000/svg" xmlns:xlink="http://www.w3.org/1999/xlink"><linearGradient id="a" gradientTransform="matrix(0 1 -1 0 .228961 -.778777)" gradientUnits="objectBoundingBox" x1=".503869" x2="2.05368" y1="-.274908" y2="-.274908"><stop offset=".316279" stop-color="#f0f1ec" stop-opacity=".592157"/><stop offset=".800003" stop-color="#fff" stop-opacity="0"/></linearGradient><linearGradient id="b" gradientTransform="matrix(-.986419426397 .164245898658 -.164245898658 -.986419426397 1.939424360163 .714189860202)" gradientUnits="objectBoundingBox" x1=".940186" x2="2.52462" y1=".437275" y2=".437275"><stop offset=".274419" stop-color="#f0f1ec" stop-opacity=".501961"/><stop offset=".562791" stop-color="#fff" stop-opacity="0"/></linearGradient><linearGradient id="c" gradientTransform="matrix(-.193078162259 .981183379017 -.981183379017 -.193078162259 .425264749139 -.550952267695)" gradientUnits="objectBoundingBox" x1=".439183" x2="1.62553" y1="-.100608" y2="-.100608"><stop offset=".451163" stop-color="#231f1f" stop-opacity=".403922"/><stop offset=".865116" stop-color="#6c6464" stop-opacity=".0588235"/></linearGradient><linearGradient id="d" gradientTransform="matrix(0 1 -1 0 .644889 -.341961)" gradientUnits="objectBoundingBox" x1=".493425" x2="1.20501" y1=".151464" y2=".151464"><stop offset=".116279" stop-color="#231e1e"/><stop offset="1" stop-color="#262323"/></linearGradient><linearGradient id="e" gradientTransform="matrix(0 1 -1 0 .636171 -.350207)" gradientUnits="objectBoundingBox" x1=".493189" x2="1.2221" y1=".142982" y2=".142982"><stop offset=".111628" stop-color="#262a27"/><stop offset="1" stop-color="#606561"/></linearGradient><linearGradient id="f" gradientTransform="matrix(.308309871763 -.9512859838 .9512859838 .308309871763 -.795309816894 1.090907176705)" gradientUnits="objectBoundingBox" x1=".352511" x2="1.58799" y1="1.09235" y2="1.09235"><stop offset=".227907"/><stop offset="1" stop-color="#fff"/></linearGradient><linearGradient id="g" gradientTransform="matrix(.309904610954 -.950767654114 .950767654114 .309904610954 -.816807128985 1.098731315183)" gradientUnits="objectBoundingBox" x1=".348476" x2="1.62468" y1="1.11204" y2="1.11204"><stop offset=".232558" stop-color="#171f18"/><stop offset="1" stop-color="#989d99"/></linearGradient><g stroke-linejoin="round"><path d="m13.4792 2.43747h61c6.0751 0 11 4.92487 11 11.00003v49.6667c0 6.0751-4.9249 11-11 11h-61c-6.07517 0-11.00004-4.9249-11.00004-11v-49.6667c0-6.07516 4.92487-11.00003 11.00004-11.00003z" fill="#b2ae5a" stroke="#000"/><path d="m73.499 4.92154h-58.1111c-3.034 0-6.8082.84714-9.5754 4.64534h.06589c.06588 35.59882 18.16601 35.71982 38.54311 35.71982 20.377 0 37.6866-.3444 38.016-35.80359v.02792c-1.4495-2.06667-3.3602-4.18919-8.9385-4.58949z" fill="url(#a)" stroke-width=".2"/><path d="m73.2684 4.87499-16.9875 1.86187c-3.0339 0-19.1508-1.78743-21.918 2.01077l-8.0819 11.91597c4.3585 7.0054 19.6778-2.0853 22.0497-3.8354 23.631-3.0163 33.5468 28.0675 33.8762-7.39164v.02792c-1.4495-2.06666-3.3602-4.18918-8.9385-4.58949z" fill="url(#b)" stroke-width=".2"/><path d="m13.7291 5.27099h60.7499c4.4183 0 8 3.58172 8 8.00001v49.9998c0 4.4183-3.5817 8-8 8h-60.7499c-4.41824 0-7.99996-3.5817-7.99996-8v-49.9998c0-4.41829 3.58172-8.00001 7.99996-8.00001z" fill="none" stroke="#ffd23f" stroke-width="6"/><path d="m43.98 75.8701 30.5331-34.4474-19.7917-16.7284-45.0235 33.3664z" fill="url(#c)" stroke-width=".2"/><path d="m54.8387 39.3962 22.2738-20.1873c-.0775-1.5613.1865-.8794.1865 2.3997l.0745 2.3379c.2984 4.6758-4.0645 7.8671-2.1254 5.8261l-25.1827 29.1183c-1.0938 1.9791-.5966-1.089.1989-6.1354l-.0994-4.0573c0-3.2791-1.3961-9.553 4.6738-9.302z" fill="url(#e)" stroke="url(#d)"/><path d="m21.5067 31.812 24.9821 6.3274c3.2464 0 3.5269 1.5327 3.5269 4.7835v13.832c0 3.2507-2.2237 4.8376-7.8079 2.7775l-24.5953-8.2231c-5.1927-1.7717-4.0417-11.9485-4.0413-13.2435v-6.2538c0-3.2508 4.6891 0 7.9355 0z" fill="url(#g)" stroke="url(#f)"/><path d="m50.4632 30.1251 15.475-12.0975-17.6005-2.542-16.7988 10.4091z" fill="#f9cc3e" stroke-width=".2"/><path d="m26.3888 29.5138 7.0488 1.7255c3.1997.7833 5.1555 3.9996 4.3684 7.1839l-.2506 1.0138c-.7871 3.1843-2.214 5.8264-5.4137 5.0431l-10.2172-3.0058c-3.1997-.7833-3.7922-3.4151-3.0051-6.5994l.2506-1.0138c.7871-3.1843 4.0191-5.1306 7.2188-4.3473z" fill="#ddb637" stroke="#b29331"/><path d="m47.2936 10.6428-35.0021 19.5936 37.9479 10.5946 29.4585-26.1247zm.7644 3.3584 22.1498 2.9502-19.3344 15.0662-23.6663-5.2447z" fill="#ddb637" stroke="#ddb637" stroke-width="3"/><path d="m65.9258 17.3473-17.7124-2.3379-17.0785 10.1679.7356.158 16.4175-10.029 17.2428 2.3349z" fill="#967d2d" stroke="#b29331"/><path d="m19.277 34.5906 18.1598 5.084" fill="none" stroke="#6c5b24"/><path d="m19.1651 35.0174 18.1598 5.0839" fill="none" stroke="#b29331"/></g></svg>

﻿<?xml version="1.0" encoding="utf-8"?>
<!DOCTYPE svg PUBLIC "-//W3C//DTD SVG 1.1//EN" "http://www.w3.org/Graphics/SVG/1.1/DTD/svg11.dtd">
<svg xmlns="http://www.w3.org/2000/svg" xmlns:xlink="http://www.w3.org/1999/xlink" version="1.1" baseProfile="full" width="88" height="76" viewBox="0 0 88.00 76.00" enable-background="new 0 0 88.00 76.00" xml:space="preserve">
	<path fill="#B2AE5A" fill-opacity="1" stroke-linejoin="round" stroke="#000000" stroke-opacity="1" d="M 13.4792,2.43747L 74.4792,2.43747C 80.5543,2.43747 85.4792,7.36234 85.4792,13.4375L 85.4792,63.1042C 85.4792,69.1793 80.5543,74.1042 74.4792,74.1042L 13.4792,74.1042C 7.40403,74.1042 2.47916,69.1793 2.47916,63.1042L 2.47916,13.4375C 2.47916,7.36234 7.40403,2.43747 13.4792,2.43747 Z "/>
	<linearGradient id="SVGID_Fill1_" gradientUnits="objectBoundingBox" x1="0.503869" y1="-0.274908" x2="2.05368" y2="-0.274908" gradientTransform="rotate(90.000000 0.503869 -0.274908)">
		<stop offset="0.316279" stop-color="#F0F1EC" stop-opacity="0.592157"/>
		<stop offset="0.800003" stop-color="#FFFFFF" stop-opacity="0"/>
	</linearGradient>
	<path fill="url(#SVGID_Fill1_)" stroke-width="0.2" stroke-linejoin="round" d="M 73.499,4.92154L 15.3879,4.92154C 12.3539,4.92154 8.5797,5.76868 5.8125,9.56688L 5.87839,9.56688C 5.94427,45.1657 24.0444,45.2867 44.4215,45.2867C 64.7985,45.2867 82.1081,44.9423 82.4375,9.48311L 82.4375,9.51103C 80.988,7.44436 79.0773,5.32184 73.499,4.92154 Z "/>
	<linearGradient id="SVGID_Fill2_" gradientUnits="objectBoundingBox" x1="0.940186" y1="0.437275" x2="2.52462" y2="0.437275" gradientTransform="rotate(170.546570 0.940186 0.437275)">
		<stop offset="0.274419" stop-color="#F0F1EC" stop-opacity="0.501961"/>
		<stop offset="0.562791" stop-color="#FFFFFF" stop-opacity="0"/>
	</linearGradient>
	<path fill="url(#SVGID_Fill2_)" stroke-width="0.2" stroke-linejoin="round" d="M 73.2684,4.87499L 56.2809,6.73686C 53.247,6.73686 37.1301,4.94943 34.3629,8.74763L 26.281,20.6636C 30.6395,27.669 45.9588,18.5783 48.3307,16.8282C 71.9617,13.8119 81.8775,44.8957 82.2069,9.43656L 82.2069,9.46448C 80.7574,7.39782 78.8467,5.2753 73.2684,4.87499 Z "/>
	<path fill="none" stroke-width="6" stroke-linejoin="round" stroke="#FFD23F" stroke-opacity="1" d="M 13.7291,5.27099L 74.479,5.27099C 78.8973,5.27099 82.479,8.85271 82.479,13.271L 82.479,63.2708C 82.479,67.6891 78.8973,71.2708 74.479,71.2708L 13.7291,71.2708C 9.31086,71.2708 5.72914,67.6891 5.72914,63.2708L 5.72914,13.271C 5.72914,8.85271 9.31086,5.27099 13.7291,5.27099 Z "/>
	<g>
		<linearGradient id="SVGID_Fill3_" gradientUnits="objectBoundingBox" x1="0.439183" y1="-0.100608" x2="1.62553" y2="-0.100608" gradientTransform="rotate(101.132477 0.439183 -0.100608)">
			<stop offset="0.451163" stop-color="#231F1F" stop-opacity="0.403922"/>
			<stop offset="0.865116" stop-color="#6C6464" stop-opacity="0.0588235"/>
		</linearGradient>
		<path fill="url(#SVGID_Fill3_)" stroke-width="0.2" stroke-linejoin="round" d="M 43.98,75.8701L 74.5131,41.4227L 54.7214,24.6943L 9.6979,58.0607L 43.98,75.8701 Z "/>
		<linearGradient id="SVGID_Stroke1_" gradientUnits="objectBoundingBox" x1="0.493425" y1="0.151464" x2="1.20501" y2="0.151464" gradientTransform="rotate(90.000000 0.493425 0.151464)">
			<stop offset="0.116279" stop-color="#231E1E" stop-opacity="1"/>
			<stop offset="1" stop-color="#262323" stop-opacity="1"/>
		</linearGradient>
		<linearGradient id="SVGID_Fill4_" gradientUnits="objectBoundingBox" x1="0.493189" y1="0.142982" x2="1.2221" y2="0.142982" gradientTransform="rotate(90.000000 0.493189 0.142982)">
			<stop offset="0.111628" stop-color="#262A27" stop-opacity="1"/>
			<stop offset="1" stop-color="#606561" stop-opacity="1"/>
		</linearGradient>
		<path fill="url(#SVGID_Fill4_)" stroke-linejoin="round" stroke="url(#SVGID_Stroke1_)" d="M 54.8387,39.3962L 77.1125,19.2089C 77.035,17.6476 77.299,18.3295 77.299,21.6086L 77.3735,23.9465C 77.6719,28.6223 73.309,31.8136 75.2481,29.7726L 50.0654,58.8909C 48.9716,60.87 49.4688,57.8019 50.2643,52.7555L 50.1649,48.6982C 50.1649,45.4191 48.7688,39.1452 54.8387,39.3962 Z "/>
		<linearGradient id="SVGID_Stroke2_" gradientUnits="objectBoundingBox" x1="0.352511" y1="1.09235" x2="1.58799" y2="1.09235" gradientTransform="rotate(-72.042595 0.352511 1.092351)">
			<stop offset="0.227907" stop-color="#000000" stop-opacity="1"/>
			<stop offset="1" stop-color="#FFFFFF" stop-opacity="1"/>
		</linearGradient>
		<linearGradient id="SVGID_Fill5_" gradientUnits="objectBoundingBox" x1="0.348476" y1="1.11204" x2="1.62468" y2="1.11204" gradientTransform="rotate(-71.946518 0.348476 1.112037)">
			<stop offset="0.232558" stop-color="#171F18" stop-opacity="1"/>
			<stop offset="1" stop-color="#989D99" stop-opacity="1"/>
		</linearGradient>
		<path fill="url(#SVGID_Fill5_)" stroke-linejoin="round" stroke="url(#SVGID_Stroke2_)" d="M 21.5067,31.812L 46.4888,38.1394C 49.7352,38.1394 50.0157,39.6721 50.0157,42.9229L 50.0157,56.7549C 50.0157,60.0056 47.792,61.5925 42.2078,59.5324L 17.6125,51.3093C 12.4198,49.5376 13.5708,39.3608 13.5712,38.0658L 13.5712,31.812C 13.5712,28.5612 18.2603,31.812 21.5067,31.812 Z "/>
		<path fill="#F9CC3E" fill-opacity="1" stroke-width="0.2" stroke-linejoin="round" d="M 50.4632,30.1251L 65.9382,18.0276L 48.3377,15.4856L 31.5389,25.8947L 50.4632,30.1251 Z "/>
		<path fill="#DDB637" fill-opacity="1" stroke-linejoin="round" stroke="#B29331" stroke-opacity="1" d="M 26.3888,29.5138L 33.4376,31.2393C 36.6373,32.0226 38.5931,35.2389 37.806,38.4232L 37.5554,39.437C 36.7683,42.6213 35.3414,45.2634 32.1417,44.4801L 21.9245,41.4743C 18.7248,40.691 18.1323,38.0592 18.9194,34.8749L 19.17,33.8611C 19.9571,30.6768 23.1891,28.7305 26.3888,29.5138 Z "/>
		<path fill="#DDB637" fill-opacity="1" stroke-width="3" stroke-linejoin="round" stroke="#DDB637" stroke-opacity="1" d="M 47.2936,10.6428L 12.2915,30.2364L 50.2394,40.831L 79.6979,14.7063L 47.2936,10.6428 Z M 48.058,14.0012L 70.2078,16.9514L 50.8734,32.0176L 27.2071,26.7729L 48.058,14.0012 Z "/>
		<path fill="#967D2D" fill-opacity="1" stroke-linejoin="round" stroke="#B29331" stroke-opacity="1" d="M 65.9258,17.3473L 48.2134,15.0094L 31.1349,25.1773L 31.8705,25.3353L 48.288,15.3063L 65.5308,17.6412L 65.9258,17.3473 Z "/>
		<line fill="none" stroke-linejoin="round" stroke="#6C5B24" stroke-opacity="1" x1="19.277" y1="34.5906" x2="37.4368" y2="39.6746"/>
		<line fill="none" stroke-linejoin="round" stroke="#B29331" stroke-opacity="1" x1="19.1651" y1="35.0174" x2="37.3249" y2="40.1013"/>
	</g>
</svg>
